!!!OTL: Muede kehrt ein Wanderer zurueck
!!!ARE: Europa, Mitteleuropa, Deutschland, Rheinland, Duesseldorf, Ittar
!!!SCT: D1014
!!!YEM: Copyright 1995, estate of Helmut Schaffrath.
**kern
*ICvox
*Ivox
*M4/4
*k[f#]
*G:
{8d
8g
=1
4.b
8a
8g
8f#
8g
8a
=2
2.d}
{8d
8f#
=3
4.a
8g
8f#
8a
8.ee
16dd
=4
2.b}
{8g
8a
=5
4.b
8dd
8cc
8b
8a
8cc
=6
2e
8r}
{8f#
8g
8e
=7
4.d
8g
8f#
8a
8.ee
16dd
=8
2b
4r}
{8g
8a
=9
4.b
8dd
8cc
8b
8a
8cc
=10
2e
8r}
{8f#
8g
8e
=11
4.d
8g
8f#
8a
8.cc
16b
=12
2g
4r}
==
!!!AGN: Liebes - Lied
!! DVA-Signatur A 102 640
!!!ONB: ESAC (Essen Associative Code) Database: DVA
!!!AMT: simple quadruple
!!!AIN: vox
!!!EED: Helmut Schaffrath
!!!EEV: 1.0
*-
